svgs/regular/rectangle-vertical.svg

<svg xmlns="http://www.w3.org/2000/svg" viewBox="0 0 448 512"><!--! Font Awesome Pro 6.0.0-alpha3 by @fontawesome - https://fontawesome.com License - https://fontawesome.com/license (Commercial License) --><path d="M352 48c8.822 0 16 7.178 16 16v384c0 8.822-7.178 16-16 16H96c-8.822 0-16-7.178-16-16V64c0-8.822 7.178-16 16-16H352zM352 0l-256 0c-35.35 0-64 28.65-64 64v384c0 35.35 28.65 64 64 64h256c35.35 0 64-28.65 64-64v-384C416 28.65 387.3 0 352 0z"/></svg>

<svg xmlns="http://www.w3.org/2000/svg" viewBox="0 0 448 512"><!-- Font Awesome Pro 6.0.0-alpha2 by @fontawesome - https://fontawesome.com License - https://fontawesome.com/license (Commercial License) --><path d="M352 48C360.822 48 368 55.178 368 64V448C368 456.822 360.822 464 352 464H96C87.178 464 80 456.822 80 448V64C80 55.178 87.178 48 96 48H352M352 0H96C60.654 0 32 28.653 32 64V448C32 483.347 60.654 512 96 512H352C387.346 512 416 483.347 416 448V64C416 28.653 387.346 0 352 0L352 0Z"/></svg>
